; generated by PrusaSlicer 2.5.0+MacOS-arm64 on 2023-11-17 at 14:36:30 UTC

; 

; external perimeters extrusion width = 0.45mm
; perimeters extrusion width = 0.45mm
; infill extrusion width = 0.54mm
; solid infill extrusion width = 0.45mm
; top infill extrusion width = 0.45mm
; support material extrusion width = 0.45mm
; first layer extrusion width = 0.45mm

; external perimeters extrusion width = 0.45mm
; perimeters extrusion width = 0.45mm
; infill extrusion width = 0.54mm
; solid infill extrusion width = 0.45mm
; top infill extrusion width = 0.45mm
; support material extrusion width = 0.45mm
; first layer extrusion width = 0.45mm

; external perimeters extrusion width = 0.45mm
; perimeters extrusion width = 0.45mm
; infill extrusion width = 0.54mm
; solid infill extrusion width = 0.45mm
; top infill extrusion width = 0.45mm
; support material extrusion width = 0.45mm
; first layer extrusion width = 0.45mm

; external perimeters extrusion width = 0.45mm
; perimeters extrusion width = 0.45mm
; infill extrusion width = 0.54mm
; solid infill extrusion width = 0.45mm
; top infill extrusion width = 0.45mm
; support material extrusion width = 0.45mm
; first layer extrusion width = 0.45mm

; external perimeters extrusion width = 0.45mm
; perimeters extrusion width = 0.45mm
; infill extrusion width = 0.54mm
; solid infill extrusion width = 0.45mm
; top infill extrusion width = 0.45mm
; support material extrusion width = 0.45mm
; first layer extrusion width = 0.45mm

; external perimeters extrusion width = 0.45mm
; perimeters extrusion width = 0.45mm
; infill extrusion width = 0.54mm
; solid infill extrusion width = 0.45mm
; top infill extrusion width = 0.45mm
; support material extrusion width = 0.45mm
; first layer extrusion width = 0.45mm

; external perimeters extrusion width = 0.45mm
; perimeters extrusion width = 0.45mm
; infill extrusion width = 0.54mm
; solid infill extrusion width = 0.45mm
; top infill extrusion width = 0.45mm
; support material extrusion width = 0.45mm
; first layer extrusion width = 0.45mm

; external perimeters extrusion width = 0.45mm
; perimeters extrusion width = 0.45mm
; infill extrusion width = 0.54mm
; solid infill extrusion width = 0.45mm
; top infill extrusion width = 0.45mm
; support material extrusion width = 0.45mm
; first layer extrusion width = 0.45mm

M107 ; disable fan
;TYPE:Custom
;*/*/*/*/* START SEQUENCE */*/*/*/*
M190 S0
M104 S215
;*/*/*/*/* ENDSTART SEQUENCE */*/*/*/*
G21 ; set units to millimeters
G90 ; use absolute coordinates
M82 ; use absolute distances for extrusion
G92 E0 ; reset extrusion distance
;
T0 ; change extruder
G92 E0 ; reset extrusion distance
M104 S215 ; set temperature
;
M107 ; disable fan
;LAYER_CHANGE
;Z:0.2
;HEIGHT:0.2
;
G1 E-1 F1800 ; retract
G92 E0 ; reset extrusion distance
G1 Z.2 F1200 ; lift Z
;*/*/*/*/* LAYER CHANGE SEQUENCE (0, 0.2) */*/*/*/*
; printing object model id:0 copy 0
G1 Z.4 ; lift Z
G1 X124.632 Y92.632 F7200 ; move to first perimeter point
G1 Z.2 F1200 ; restore layer Z
G1 E1 F1800 ;  ; unretract
;TYPE:Perimeter
;WIDTH:0.449999
G1 X139.368 Y92.632 E1.49879 ; perimeter
G1 X139.368 Y107.368 E1.99758 ; perimeter
G1 X124.632 Y107.368 E2.49637 ; perimeter
G1 X124.632 Y92.692 E2.99313 ; perimeter
G1 E1.99313 ; retract
G92 E0 ; reset extrusion distance
G1 Z.4 F1200 ; lift Z
G1 X124.225 Y92.225 F7200 ; move to first perimeter point
G1 Z.2 F1200 ; restore layer Z
G1 E1 F1800 ;  ; unretract
;TYPE:External perimeter
G1 X139.775 Y92.225 E1.52635 ; perimeter
G1 X139.775 Y107.775 E2.0527 ; perimeter
G1 X124.225 Y107.775 E2.57904 ; perimeter
G1 X124.225 Y92.285 E3.10336 ; perimeter
G1 X124.611 Y92.329 F7200 ; move inwards before travel
G1 E2.10336 F1800 ; retract
G92 E0 ; reset extrusion distance
G1 Z.4 F1200 ; lift Z
G1 X125.55 Y107.287 F7200 ; move to first infill point
G1 Z.2 F1200 ; restore layer Z
G1 E1 F1800 ;  ; unretract
;TYPE:Solid infill
;WIDTH:0.456259
G1 X124.897 Y106.634 E1.03173 ; infill
G1 X124.897 Y106.049 E1.05182 ; infill
G1 X125.951 Y107.103 E1.10306 ; infill
G1 X126.535 Y107.103 E1.12316 ; infill
G1 X124.897 Y105.465 E1.20281 ; infill
G1 X124.897 Y104.88 E1.2229 ; infill
G1 X127.12 Y107.103 E1.33097 ; infill
G1 X127.705 Y107.103 E1.35106 ; infill
G1 X124.897 Y104.295 E1.48753 ; infill
G1 X124.897 Y103.711 E1.50762 ; infill
G1 X128.289 Y107.103 E1.67252 ; infill
G1 X128.874 Y107.103 E1.69261 ; infill
G1 X124.897 Y103.126 E1.88591 ; infill
G1 X124.897 Y102.542 E1.906 ; infill
G1 X129.458 Y107.103 E2.12771 ; infill
G1 X130.043 Y107.103 E2.14781 ; infill
G1 X124.897 Y101.957 E2.39793 ; infill
G1 X124.897 Y101.373 E2.41802 ; infill
G1 X130.627 Y107.103 E2.69656 ; infill
G1 X131.212 Y107.103 E2.71665 ; infill
G1 X124.897 Y100.788 E3.02361 ; infill
G1 X124.897 Y100.204 E3.0437 ; infill
G1 X131.796 Y107.103 E3.37906 ; infill
G1 X132.381 Y107.103 E3.39915 ; infill
G1 X124.897 Y99.619 E3.76293 ; infill
G1 X124.897 Y99.035 E3.78302 ; infill
G1 X132.965 Y107.103 E4.17521 ; infill
G1 X133.55 Y107.103 E4.1953 ; infill
G1 X124.897 Y98.45 E4.6159 ; infill
G1 X124.897 Y97.865 E4.63599 ; infill
G1 X134.135 Y107.103 E5.085 ; infill
G1 X134.719 Y107.103 E5.1051 ; infill
G1 X124.897 Y97.281 E5.58252 ; infill
G1 X124.897 Y96.696 E5.60261 ; infill
G1 X135.304 Y107.103 E6.10845 ; infill
G1 X135.888 Y107.103 E6.12854 ; infill
G1 X124.897 Y96.112 E6.66279 ; infill
G1 X124.897 Y95.527 E6.68288 ; infill
G1 X136.473 Y107.103 E7.24555 ; infill
G1 X137.057 Y107.103 E7.26564 ; infill
G1 X124.897 Y94.943 E7.85671 ; infill
G1 X124.897 Y94.358 E7.8768 ; infill
G1 X137.642 Y107.103 E8.49629 ; infill
G1 X138.226 Y107.103 E8.51638 ; infill
G1 X124.897 Y93.774 E9.16428 ; infill
G1 X124.897 Y93.189 E9.18437 ; infill
G1 X138.811 Y107.103 E9.86068 ; infill
G1 X139.103 Y107.103 E9.87073 ; infill
G1 X139.103 Y106.811 E9.88077 ; infill
G1 X125.189 Y92.897 E10.55709 ; infill
G1 X125.773 Y92.897 E10.57718 ; infill
G1 X139.103 Y106.227 E11.22509 ; infill
G1 X139.103 Y105.642 E11.24518 ; infill
G1 X126.358 Y92.897 E11.86468 ; infill
G1 X126.943 Y92.897 E11.88477 ; infill
G1 X139.103 Y105.057 E12.47585 ; infill
G1 X139.103 Y104.473 E12.49594 ; infill
G1 X127.527 Y92.897 E13.05861 ; infill
G1 X128.112 Y92.897 E13.0787 ; infill
G1 X139.103 Y103.888 E13.61296 ; infill
G1 X139.103 Y103.304 E13.63305 ; infill
G1 X128.696 Y92.897 E14.13889 ; infill
G1 X129.281 Y92.897 E14.15898 ; infill
G1 X139.103 Y102.719 E14.63642 ; infill
G1 X139.103 Y102.135 E14.65651 ; infill
G1 X129.865 Y92.897 E15.10553 ; infill
G1 X130.45 Y92.897 E15.12562 ; infill
G1 X139.103 Y101.55 E15.54623 ; infill
G1 X139.103 Y100.966 E15.56632 ; infill
G1 X131.034 Y92.897 E15.95851 ; infill
G1 X131.619 Y92.897 E15.9786 ; infill
G1 X139.103 Y100.381 E16.34239 ; infill
G1 X139.103 Y99.797 E16.36248 ; infill
G1 X132.203 Y92.897 E16.69785 ; infill
G1 X132.788 Y92.897 E16.71794 ; infill
G1 X139.103 Y99.212 E17.0249 ; infill
G1 X139.103 Y98.627 E17.04499 ; infill
G1 X133.373 Y92.897 E17.32353 ; infill
G1 X133.957 Y92.897 E17.34363 ; infill
G1 X139.103 Y98.043 E17.59376 ; infill
G1 X139.103 Y97.458 E17.61385 ; infill
G1 X134.542 Y92.897 E17.83557 ; infill
G1 X135.126 Y92.897 E17.85566 ; infill
G1 X139.103 Y96.874 E18.04897 ; infill
G1 X139.103 Y96.289 E18.06906 ; infill
G1 X135.711 Y92.897 E18.23396 ; infill
G1 X136.295 Y92.897 E18.25405 ; infill
G1 X139.103 Y95.705 E18.39054 ; infill
G1 X139.103 Y95.12 E18.41063 ; infill
G1 X136.88 Y92.897 E18.5187 ; infill
G1 X137.464 Y92.897 E18.53879 ; infill
G1 X139.103 Y94.536 E18.61845 ; infill
G1 X139.103 Y93.951 E18.63854 ; infill
G1 X138.049 Y92.897 E18.68979 ; infill
G1 X138.634 Y92.897 E18.70988 ; infill
G1 X139.287 Y93.55 E18.74162 ; infill
; stop printing object model id:0 copy 0
M106 S25.5 ; enable fan
;LAYER_CHANGE
;Z:0.3
;HEIGHT:0.1
;
G1 E17.74162 F1800 ; retract
G92 E0 ; reset extrusion distance
G1 Z.4 F1200 ; lift Z
;*/*/*/*/* LAYER CHANGE SEQUENCE (1, 0.3) */*/*/*/*
; printing object model id:0 copy 0
G1 X138.896 Y92.654 F7200 ; move to first perimeter point
G1 Z.3 F1200 ; restore layer Z
G1 E1 F1800 ;  ; unretract
;TYPE:Perimeter
;WIDTH:0.449999
G1 F1500
G1 X138.896 Y107.346 E1.26178 ; perimeter
G1 X124.654 Y107.346 E1.51554 ; perimeter
G1 X124.654 Y92.654 E1.77732 ; perimeter
G1 X138.836 Y92.654 E2.03001 ; perimeter
G1 E1.03001 F1800 ; retract
G92 E0 ; reset extrusion distance
G1 Z.5 F1200 ; lift Z
G1 X139.325 Y92.446 F7200 ; move to first perimeter point
G1 Z.3 F1200 ; restore layer Z
G1 E1 F1800 ;  ; unretract
;TYPE:External perimeter
G1 F3600
G1 X139.325 Y107.554 E1.26919 ; perimeter
G1 X139.457 Y107.775 E1.27377 ; perimeter
G1 X124.225 Y107.775 E1.54515 ; perimeter
G1 X124.225 Y92.225 E1.82219 ; perimeter
G1 X139.457 Y92.225 E2.09357 ; perimeter
G1 X139.356 Y92.394 E2.09708 ; perimeter
G1 X139.123 Y92.791 F7200 ; move inwards before travel
G1 E1.09708 F1800 ; retract
G92 E0 ; reset extrusion distance
G1 Z.5 F1200 ; lift Z
G1 X125.612 Y92.739 F7200 ; move to first infill point
G1 Z.3 F1200 ; restore layer Z
G1 E1 F1800 ;  ; unretract
;TYPE:Solid infill
;WIDTH:0.452926
G1 F3600
G1 X124.932 Y93.419 E1.01724 ; infill
G1 X124.932 Y94.029 E1.02818 ; infill
G1 X126.029 Y92.932 E1.05601 ; infill
G1 X126.639 Y92.932 E1.06696 ; infill
G1 X124.932 Y94.639 E1.11026 ; infill
G1 X124.932 Y95.249 E1.12121 ; infill
G1 X127.249 Y92.932 E1.17999 ; infill
G1 X127.86 Y92.932 E1.19094 ; infill
G1 X124.932 Y95.86 E1.2652 ; infill
G1 X124.932 Y96.47 E1.27615 ; infill
G1 X128.47 Y92.932 E1.36589 ; infill
G1 X129.08 Y92.932 E1.37684 ; infill
G1 X124.932 Y97.08 E1.48206 ; infill
G1 X124.932 Y97.69 E1.49301 ; infill
G1 X129.69 Y92.932 E1.61371 ; infill
G1 X130.3 Y92.932 E1.62466 ; infill
G1 X124.932 Y98.3 E1.76084 ; infill
G1 X124.932 Y98.91 E1.77179 ; infill
G1 X130.91 Y92.932 E1.92345 ; infill
G1 X131.521 Y92.932 E1.9344 ; infill
G1 X124.932 Y99.521 E2.10154 ; infill
G1 X124.932 Y100.131 E2.11248 ; infill
G1 X132.131 Y92.932 E2.2951 ; infill
G1 X132.741 Y92.932 E2.30605 ; infill
G1 X124.932 Y100.741 E2.50415 ; infill
G1 X124.932 Y101.351 E2.5151 ; infill
G1 X133.351 Y92.932 E2.72868 ; infill
G1 X133.961 Y92.932 E2.73962 ; infill
G1 X124.932 Y101.961 E2.96868 ; infill
G1 X124.932 Y102.572 E2.97963 ; infill
G1 X134.572 Y92.932 E3.22417 ; infill
G1 X135.182 Y92.932 E3.23511 ; infill
G1 X124.932 Y103.182 E3.49513 ; infill
G1 X124.932 Y103.792 E3.50608 ; infill
G1 X135.792 Y92.932 E3.78158 ; infill
G1 X136.402 Y92.932 E3.79252 ; infill
G1 X124.932 Y104.402 E4.0835 ; infill
G1 X124.932 Y105.012 E4.09445 ; infill
G1 X137.012 Y92.932 E4.4009 ; infill
G1 X137.622 Y92.932 E4.41185 ; infill
G1 X124.932 Y105.622 E4.73379 ; infill
G1 X124.932 Y106.233 E4.74473 ; infill
G1 X138.233 Y92.932 E5.08215 ; infill
G1 X138.618 Y92.932 E5.08906 ; infill
G1 X138.618 Y93.157 E5.09309 ; infill
G1 X124.932 Y106.843 E5.44028 ; infill
G1 X124.932 Y107.068 E5.44432 ; infill
G1 X125.317 Y107.068 E5.45123 ; infill
G1 X138.618 Y93.767 E5.78865 ; infill
G1 X138.618 Y94.377 E5.79959 ; infill
G1 X125.927 Y107.068 E6.12153 ; infill
G1 X126.538 Y107.068 E6.13248 ; infill
G1 X138.618 Y94.988 E6.43894 ; infill
G1 X138.618 Y95.598 E6.44989 ; infill
G1 X127.148 Y107.068 E6.74087 ; infill
G1 X127.758 Y107.068 E6.75181 ; infill
G1 X138.618 Y96.208 E7.02731 ; infill
G1 X138.618 Y96.818 E7.03826 ; infill
G1 X128.368 Y107.068 E7.29828 ; infill
G1 X128.978 Y107.068 E7.30923 ; infill
G1 X138.618 Y97.428 E7.55377 ; infill
G1 X138.618 Y98.039 E7.56472 ; infill
G1 X129.589 Y107.068 E7.79378 ; infill
G1 X130.199 Y107.068 E7.80472 ; infill
G1 X138.618 Y98.649 E8.01831 ; infill
G1 X138.618 Y99.259 E8.02925 ; infill
G1 X130.809 Y107.068 E8.22736 ; infill
G1 X131.419 Y107.068 E8.2383 ; infill
G1 X138.618 Y99.869 E8.42093 ; infill
G1 X138.618 Y100.479 E8.43187 ; infill
G1 X132.029 Y107.068 E8.59902 ; infill
G1 X132.639 Y107.068 E8.60996 ; infill
G1 X138.618 Y101.089 E8.76163 ; infill
G1 X138.618 Y101.7 E8.77257 ; infill
G1 X133.25 Y107.068 E8.90876 ; infill
G1 X133.86 Y107.068 E8.91971 ; infill
G1 X138.618 Y102.31 E9.04041 ; infill
G1 X138.618 Y102.92 E9.05136 ; infill
G1 X134.47 Y107.068 E9.15658 ; infill
G1 X135.08 Y107.068 E9.16753 ; infill
G1 X138.618 Y103.53 E9.25728 ; infill
G1 X138.618 Y104.14 E9.26822 ; infill
G1 X135.69 Y107.068 E9.34249 ; infill
G1 X136.301 Y107.068 E9.35344 ; infill
G1 X138.618 Y104.751 E9.41222 ; infill
G1 X138.618 Y105.361 E9.42317 ; infill
G1 X136.911 Y107.068 E9.46648 ; infill
G1 X137.521 Y107.068 E9.47742 ; infill
G1 X138.618 Y105.971 E9.50525 ; infill
G1 X138.618 Y106.581 E9.5162 ; infill
G1 X137.938 Y107.261 E9.53344 ; infill
; stop printing object model id:0 copy 0
G1 E8.53344 F1800 ; retract for toolchange
G92 E0 ; reset extrusion distance
G1 Z.5 F1200 ; lift Z
;
;
T1 ; change extruder
G92 E0 ; reset extrusion distance
M104 S215 ; set temperature
;
; printing object model id:0 copy 0
G1 E-1 F1800 ; retract
G92 E0 ; reset extrusion distance
G1 X139.775 Y107.457 F7200 ; move to first perimeter point
G1 Z.3 F1200 ; restore layer Z
G1 E1 F1800 ;  ; unretract
;TYPE:External perimeter
;WIDTH:0.45
G1 F3600
G1 X139.775 Y92.543 E1.26571 ; perimeter
G1 X139.825 Y92.399 E1.26843 ; perimeter
;WIDTH:0.40573
G1 X139.875 Y92.254 E1.27087 ; perimeter
;WIDTH:0.36146
G1 X139.875 Y92.125 E1.2727 ; perimeter
; stop printing object model id:0 copy 0
;LAYER_CHANGE
;Z:0.4
;HEIGHT:0.1
;
G1 E-.2727 F1800 ; retract
G92 E0 ; reset extrusion distance
G1 Z.5 F1200 ; lift Z
;*/*/*/*/* LAYER CHANGE SEQUENCE (2, 0.4) */*/*/*/*
; printing object model id:0 copy 0
G1 X139.825 Y92.175 F7200 ; move to first perimeter point
G1 Z.4 F1200 ; restore layer Z
G1 E1 F1800 ;  ; unretract
G1 F3600
G1 X139.824 Y92.383 E1.00294 ; perimeter
;WIDTH:0.388961
G1 F1500
G1 X139.809 Y92.491 E1.0046 ; perimeter
;WIDTH:0.424846
G1 X139.789 Y92.788 E1.00961 ; perimeter
;WIDTH:0.46073
G1 X139.77 Y93.086 E1.01506 ; perimeter
G1 X139.77 Y107.444 E1.27727 ; perimeter
G1 X139.33 Y107.005 E1.28861 ; perimeter
G1 X139.33 Y92.995 E1.54446 ; perimeter
G1 X139.592 Y92.707 E1.55157 ; perimeter
;WIDTH:0.424846
G1 X139.788 Y92.482 E1.55657 ; perimeter
;WIDTH:0.388961
G1 X139.804 Y92.44 E1.55726 ; perimeter
; stop printing object model id:0 copy 0
G1 E.55726 F1800 ; retract for toolchange
G92 E0 ; reset extrusion distance
G1 Z.6 F1200 ; lift Z
;
;
T0 ; change extruder
G92 E0 ; reset extrusion distance
M104 S215 ; set temperature
;
; printing object model id:0 copy 0
G1 X138.501 Y92.765 F7200 ; move to first perimeter point
G1 Z.4 F1200 ; restore layer Z
G1 E1 F1800 ;  ; unretract
;TYPE:Perimeter
;WIDTH:0.449999
G1 F1500
G1 X138.446 Y92.896 E1.00252 ; perimeter
G1 X138.446 Y107.104 E1.25567 ; perimeter
G1 X138.547 Y107.346 E1.26034 ; perimeter
G1 X124.654 Y107.346 E1.50787 ; perimeter
G1 X124.654 Y92.654 E1.76964 ; perimeter
G1 X138.547 Y92.654 E2.01717 ; perimeter
G1 X138.523 Y92.71 E2.01825 ; perimeter
G1 E1.01825 F1800 ; retract
G92 E0 ; reset extrusion distance
G1 Z.6 F1200 ; lift Z
G1 X138.875 Y92.896 F7200 ; move to first perimeter point
G1 Z.4 F1200 ; restore layer Z
G1 E1 F1800 ;  ; unretract
;TYPE:External perimeter
G1 F3600
G1 X138.875 Y107.104 E1.25315 ; perimeter
G1 X138.938 Y107.256 E1.25608 ; perimeter
G1 X139.457 Y107.775 E1.26915 ; perimeter
G1 X124.225 Y107.775 E1.54053 ; perimeter
G1 X124.225 Y92.225 E1.81758 ; perimeter
G1 X139.403 Y92.225 E2.08799 ; perimeter
G1 X139.425 Y92.257 E2.08869 ; perimeter
G1 X138.938 Y92.744 E2.10096 ; perimeter
G1 X138.898 Y92.84 E2.10282 ; perimeter
G1 X138.491 Y93.009 F7200 ; move inwards before travel
G1 E1.10282 F1800 ; retract
G92 E0 ; reset extrusion distance
G1 Z.6 F1200 ; lift Z
G1 X138.361 Y93.618 F7200 ; move to first infill point
G1 Z.4 F1200 ; restore layer Z
G1 E1 F1800 ;  ; unretract
;TYPE:Solid infill
;WIDTH:0.455386
G1 F3600
G1 X137.676 Y92.932 E1.01749 ; infill
G1 X137.062 Y92.932 E1.02856 ; infill
G1 X138.169 Y94.039 E1.0568 ; infill
G1 X138.169 Y94.653 E1.06788 ; infill
G1 X136.448 Y92.932 E1.11179 ; infill
G1 X135.835 Y92.932 E1.12286 ; infill
G1 X138.17 Y95.267 E1.18243 ; infill
G1 X138.17 Y95.881 E1.19351 ; infill
G1 X135.221 Y92.932 E1.26876 ; infill
G1 X134.607 Y92.932 E1.27983 ; infill
